app/images/icons/phone.svg

<svg xmlns="http://www.w3.org/2000/svg" preserveAspectRatio="xMidYMid" width="78.38" height="64"><circle cx="61.505" cy="46.505" r="16.875" fill="#a3bbc8"/><path d="M58.493 37.654c-.185 0-.371-.046-.542-.144l-2.005-1.145a1.068 1.068 0 01-.397-1.467c.3-.513.963-.689 1.482-.393l2.005 1.146c.519.296.697.953.397 1.466a1.085 1.085 0 01-.94.537zm-1.461-19.615a1.087 1.087 0 01-.542.144c-.375 0-.74-.192-.941-.537a1.068 1.068 0 01.397-1.467l2.005-1.145a1.09 1.09 0 011.482.393c.3.513.122 1.17-.397 1.467l-2.004 1.145zm5.338 8.233a1.08 1.08 0 01-1.085 1.074H58.97a1.08 1.08 0 01-1.085-1.074 1.08 1.08 0 011.085-1.074h2.315a1.08 1.08 0 011.085 1.074zm-3.411 18.837l2.113-.418a1.085 1.085 0 011.277.842 1.074 1.074 0 01-.851 1.264l-5.787 1.145a1.099 1.099 0 01-.981-.293 1.068 1.068 0 01-.296-.97l1.157-5.727a1.085 1.085 0 011.277-.843c.588.116.969.682.851 1.264l-.483 2.393c4.845-4.549 7.594-10.831 7.594-17.494 0-13.303-10.937-24.125-24.379-24.125-7.923 0-15.38 3.833-19.948 10.252a1.093 1.093 0 01-1.512.26 1.066 1.066 0 01-.262-1.496C23.702 4.173 31.823-.001 40.45-.001 55.09-.001 67 11.786 67 26.272c0 7.151-2.906 13.901-8.041 18.837zM24.411 18.183c-.184 0-.371-.046-.542-.144l-2.004-1.146a1.066 1.066 0 01-.397-1.466 1.09 1.09 0 011.482-.393l2.005 1.145c.519.296.696.953.397 1.467a1.088 1.088 0 01-.941.537zm.544 18.182l-2.005 1.146a1.087 1.087 0 01-1.482-.393 1.067 1.067 0 01.397-1.467l2.004-1.146a1.093 1.093 0 011.483.393 1.068 1.068 0 01-.397 1.467zm6.778 4.848c.519.297.697.953.397 1.467l-1.157 1.984a1.088 1.088 0 01-1.482.393 1.069 1.069 0 01-.398-1.467l1.158-1.984c.3-.513.963-.689 1.482-.393zm-.541-29.738c-.375 0-.74-.192-.941-.537l-1.157-1.984c-.3-.513-.122-1.17.397-1.466a1.09 1.09 0 011.482.392l1.157 1.984c.3.514.122 1.171-.397 1.467a1.084 1.084 0 01-.541.144zm8.029 11.034c0 3.627-2.959 5.225-5.337 6.509-1.927 1.04-3.263 1.822-3.735 3.053h7.987c.599 0 1.085.48 1.085 1.074a1.08 1.08 0 01-1.086 1.073h-9.259a1.08 1.08 0 01-1.086-1.073c0-3.283 2.685-4.733 5.054-6.012 2.617-1.414 4.206-2.43 4.206-4.624 0-1.754-1.59-3.181-3.544-3.181-1.955 0-3.545 1.427-3.545 3.181a1.08 1.08 0 01-1.085 1.074 1.08 1.08 0 01-1.085-1.074c0-2.938 2.563-5.329 5.715-5.329 3.151 0 5.715 2.391 5.715 5.329zM50.65 41.606l1.157 1.984c.3.514.122 1.17-.397 1.467a1.088 1.088 0 01-1.482-.393l-1.157-1.984c-.3-.514-.122-1.17.397-1.467a1.092 1.092 0 011.482.393zM39.365 7.946V5.655a1.08 1.08 0 011.085-1.074c.6 0 1.085.481 1.086 1.074v2.291A1.08 1.08 0 0140.45 9.02a1.08 1.08 0 01-1.085-1.074zm10.344 3.529c-.184 0-.37-.046-.541-.144a1.067 1.067 0 01-.397-1.467l1.157-1.984c.3-.513.963-.689 1.482-.393.519.297.697.954.398 1.467l-1.158 1.984a1.088 1.088 0 01-.941.537zm3.401 17.088a1.08 1.08 0 01-1.085 1.074h-1.23v3.508c0 .593-.486 1.073-1.085 1.073a1.08 1.08 0 01-1.085-1.073v-3.508h-7.017c-.329 0-.641-.148-.847-.402a1.067 1.067 0 01-.213-.905l2.315-10.309c.13-.578.71-.944 1.295-.815.585.128.954.703.824 1.281l-2.021 9.002h5.664v-9.235a1.08 1.08 0 011.085-1.074c.6 0 1.085.481 1.085 1.074v9.235h1.23a1.08 1.08 0 011.085 1.074zm-33.418-1.959l-4.07 4.026c-.833.826-.937 2.147-.241 3.073a73.665 73.665 0 007.078 8.082 73.959 73.959 0 008.167 7.004c.937.689 2.271.586 3.105-.239l4.069-4.027a4.608 4.608 0 015.457-.741l11.588 6.45a4.355 4.355 0 012.212 3.229c.2 1.443-.294 2.872-1.354 3.921l-4.292 4.247C49.815 63.208 47.555 64 44.778 64c-2.5 0-5.419-.641-8.652-1.927-6.528-2.596-13.671-7.536-20.112-13.91C9.573 41.789 4.581 34.721 1.957 28.26c-2.742-6.753-2.583-12.125.449-15.125l4.292-4.247a4.697 4.697 0 013.962-1.339 4.395 4.395 0 013.263 2.188l6.518 11.467a4.49 4.49 0 01-.749 5.4zm-1.142-4.347L12.032 10.79a2.24 2.24 0 00-1.668-1.113 2.547 2.547 0 00-2.131.73l-.75.741 1.344 2.44c.287.52.093 1.172-.433 1.457a1.09 1.09 0 01-1.472-.429l-1.039-1.885-1.942 1.922c-2.344 2.32-2.333 6.988.03 12.807 2.517 6.198 7.339 13.011 13.577 19.185 6.239 6.173 13.124 10.945 19.387 13.435 5.88 2.339 10.597 2.35 12.941.03l1.943-1.922-9.319-5.03a1.068 1.068 0 01-.433-1.457c.287-.52.946-.712 1.472-.428l9.879 5.332.75-.742c.576-.57.845-1.339.738-2.11a2.221 2.221 0 00-1.125-1.65l-11.588-6.45a2.414 2.414 0 00-2.858.389l-1.937 1.916 1.904 1.028c.526.283.72.936.433 1.456a1.09 1.09 0 01-1.472.429l-2.464-1.33-.533.528c-1.59 1.572-4.14 1.763-5.934.444a76.005 76.005 0 01-8.407-7.21 75.699 75.699 0 01-7.286-8.319c-1.333-1.775-1.14-4.3.449-5.872l.533-.528-5.387-9.773a1.068 1.068 0 01.433-1.457 1.09 1.09 0 011.472.429l5.082 9.219 1.936-1.917a2.352 2.352 0 00.393-2.828z" fill="#243f4d" fill-rule="evenodd"/></svg>

<svg xmlns="http://www.w3.org/2000/svg" xmlns:xlink="http://www.w3.org/1999/xlink" preserveAspectRatio="xMidYMid" width="78.38" height="64" viewBox="0 0 78.38 64">
  <defs>
    <style>
      .cls-1 {
        fill: #a3bbc8;
      }

      .cls-2 {
        fill: #243f4d;
        fill-rule: evenodd;
      }
    </style>
  </defs>
  <g>
    <circle cx="61.505" cy="46.505" r="16.875" class="cls-1"/>
    <path d="M58.493,37.654 C58.308,37.654 58.122,37.608 57.951,37.510 L55.946,36.365 C55.427,36.069 55.250,35.412 55.549,34.898 C55.849,34.385 56.512,34.209 57.031,34.505 L59.036,35.651 C59.555,35.947 59.733,36.604 59.433,37.117 C59.232,37.462 58.868,37.654 58.493,37.654 ZM57.032,18.039 C56.861,18.137 56.674,18.183 56.490,18.183 C56.115,18.183 55.750,17.991 55.549,17.646 C55.250,17.132 55.427,16.476 55.946,16.179 L57.951,15.034 C58.470,14.737 59.134,14.913 59.433,15.427 C59.733,15.940 59.555,16.597 59.036,16.894 L57.032,18.039 ZM62.370,26.272 C62.370,26.865 61.884,27.346 61.285,27.346 L58.970,27.346 C58.371,27.346 57.885,26.865 57.885,26.272 C57.885,25.679 58.371,25.198 58.970,25.198 L61.285,25.198 C61.884,25.198 62.370,25.679 62.370,26.272 ZM58.959,45.109 L61.072,44.691 C61.660,44.575 62.231,44.952 62.349,45.533 C62.467,46.115 62.086,46.680 61.498,46.797 L55.711,47.942 C55.640,47.956 55.569,47.963 55.498,47.963 C55.213,47.963 54.936,47.852 54.730,47.649 C54.474,47.395 54.363,47.031 54.434,46.679 L55.591,40.952 C55.709,40.370 56.280,39.993 56.868,40.109 C57.456,40.225 57.837,40.791 57.719,41.373 L57.236,43.766 C62.081,39.217 64.830,32.935 64.830,26.272 C64.830,12.969 53.893,2.147 40.451,2.147 C32.528,2.147 25.071,5.980 20.503,12.399 C20.158,12.884 19.481,13.000 18.991,12.659 C18.501,12.317 18.383,11.647 18.729,11.163 C23.702,4.173 31.823,-0.001 40.450,-0.001 C55.090,-0.001 67.000,11.786 67.000,26.272 C67.000,33.423 64.094,40.173 58.959,45.109 ZM24.411,18.183 C24.227,18.183 24.040,18.137 23.869,18.039 L21.865,16.893 C21.346,16.597 21.168,15.940 21.468,15.427 C21.767,14.913 22.431,14.737 22.950,15.034 L24.955,16.179 C25.474,16.475 25.651,17.132 25.352,17.646 C25.151,17.990 24.786,18.183 24.411,18.183 ZM24.955,36.365 L22.950,37.511 C22.779,37.609 22.592,37.655 22.408,37.655 C22.033,37.655 21.669,37.462 21.468,37.118 C21.168,36.604 21.346,35.947 21.865,35.651 L23.869,34.505 C24.388,34.209 25.052,34.385 25.352,34.898 C25.651,35.412 25.474,36.069 24.955,36.365 ZM31.733,41.213 C32.252,41.510 32.430,42.166 32.130,42.680 L30.973,44.664 C30.772,45.008 30.407,45.201 30.032,45.201 C29.848,45.201 29.661,45.154 29.491,45.057 C28.972,44.760 28.794,44.104 29.093,43.590 L30.251,41.606 C30.551,41.093 31.214,40.917 31.733,41.213 ZM31.192,11.475 C30.817,11.475 30.452,11.283 30.251,10.938 L29.094,8.954 C28.794,8.441 28.972,7.784 29.491,7.488 C30.010,7.191 30.673,7.367 30.973,7.880 L32.130,9.864 C32.430,10.378 32.252,11.035 31.733,11.331 C31.562,11.429 31.376,11.475 31.192,11.475 ZM39.221,22.509 C39.221,26.136 36.262,27.734 33.884,29.018 C31.957,30.058 30.621,30.840 30.149,32.071 L38.136,32.071 C38.735,32.071 39.221,32.551 39.221,33.145 C39.221,33.737 38.735,34.218 38.135,34.218 L28.876,34.218 C28.276,34.218 27.790,33.737 27.790,33.145 C27.790,29.862 30.475,28.412 32.844,27.133 C35.461,25.719 37.050,24.703 37.050,22.509 C37.050,20.755 35.460,19.328 33.506,19.328 C31.551,19.328 29.961,20.755 29.961,22.509 C29.961,23.102 29.475,23.583 28.876,23.583 C28.276,23.583 27.791,23.102 27.791,22.509 C27.791,19.571 30.354,17.180 33.506,17.180 C36.657,17.180 39.221,19.571 39.221,22.509 ZM50.650,41.606 L51.807,43.590 C52.107,44.104 51.929,44.760 51.410,45.057 C51.239,45.155 51.053,45.201 50.869,45.201 C50.494,45.201 50.129,45.008 49.928,44.664 L48.771,42.680 C48.471,42.166 48.649,41.510 49.168,41.213 C49.687,40.917 50.350,41.093 50.650,41.606 ZM39.365,7.946 L39.365,5.655 C39.365,5.062 39.851,4.581 40.450,4.581 C41.050,4.581 41.535,5.062 41.536,5.655 L41.536,7.946 C41.536,8.539 41.050,9.020 40.450,9.020 C39.851,9.020 39.365,8.539 39.365,7.946 ZM49.709,11.475 C49.525,11.475 49.339,11.429 49.168,11.331 C48.649,11.035 48.471,10.378 48.771,9.864 L49.928,7.880 C50.228,7.367 50.891,7.191 51.410,7.487 C51.929,7.784 52.107,8.441 51.808,8.954 L50.650,10.938 C50.449,11.282 50.084,11.475 49.709,11.475 ZM53.110,28.563 C53.110,29.156 52.624,29.637 52.025,29.637 L50.795,29.637 L50.795,33.145 C50.795,33.738 50.309,34.218 49.710,34.218 C49.111,34.218 48.625,33.737 48.625,33.145 L48.625,29.637 L41.608,29.637 C41.279,29.637 40.967,29.489 40.761,29.235 C40.555,28.981 40.477,28.648 40.548,28.330 L42.863,18.021 C42.993,17.443 43.573,17.077 44.158,17.206 C44.743,17.334 45.112,17.909 44.982,18.487 L42.961,27.489 L48.625,27.489 L48.625,18.254 C48.625,17.661 49.111,17.180 49.710,17.180 C50.310,17.180 50.795,17.661 50.795,18.254 L50.795,27.489 L52.025,27.489 C52.624,27.489 53.110,27.970 53.110,28.563 ZM19.692,26.604 L15.622,30.630 C14.789,31.456 14.685,32.777 15.381,33.703 C17.470,36.485 19.851,39.204 22.459,41.785 C25.067,44.366 27.815,46.722 30.626,48.789 C31.563,49.478 32.897,49.375 33.731,48.550 L37.800,44.523 C39.239,43.099 41.483,42.794 43.257,43.782 L54.845,50.232 C56.059,50.908 56.865,52.085 57.057,53.461 C57.257,54.904 56.763,56.333 55.703,57.382 L51.411,61.629 C49.815,63.208 47.555,64.000 44.778,64.000 C42.278,64.000 39.359,63.359 36.126,62.073 C29.598,59.477 22.455,54.537 16.014,48.163 C9.573,41.789 4.581,34.721 1.957,28.260 C-0.785,21.507 -0.626,16.135 2.406,13.135 L6.698,8.888 C7.758,7.839 9.202,7.350 10.660,7.549 C12.051,7.738 13.240,8.535 13.923,9.737 L20.441,21.204 C21.439,22.959 21.131,25.180 19.692,26.604 ZM18.550,22.257 L12.032,10.790 C11.685,10.179 11.077,9.773 10.364,9.677 C10.252,9.661 10.140,9.654 10.028,9.654 C9.366,9.654 8.726,9.919 8.233,10.407 L7.483,11.148 L8.827,13.588 C9.114,14.108 8.920,14.760 8.394,15.045 C8.229,15.134 8.051,15.176 7.875,15.176 C7.491,15.176 7.119,14.973 6.922,14.616 L5.883,12.731 L3.941,14.653 C1.597,16.973 1.608,21.641 3.971,27.460 C6.488,33.658 11.310,40.471 17.548,46.645 C23.787,52.818 30.672,57.590 36.935,60.080 C42.815,62.419 47.532,62.430 49.876,60.110 L51.819,58.188 L42.500,53.158 C41.974,52.874 41.780,52.222 42.067,51.701 C42.354,51.181 43.013,50.989 43.539,51.273 L53.418,56.605 L54.168,55.863 C54.744,55.293 55.013,54.524 54.906,53.753 C54.808,53.048 54.398,52.447 53.781,52.103 L42.193,45.653 C41.264,45.136 40.088,45.296 39.335,46.042 L37.398,47.958 L39.302,48.986 C39.828,49.269 40.022,49.922 39.735,50.442 C39.538,50.800 39.166,51.002 38.782,51.002 C38.606,51.002 38.428,50.960 38.263,50.871 L35.799,49.541 L35.266,50.069 C33.676,51.641 31.126,51.832 29.332,50.513 C26.436,48.384 23.607,45.958 20.925,43.303 C18.242,40.649 15.791,37.850 13.639,34.984 C12.306,33.209 12.499,30.684 14.088,29.112 L14.621,28.584 L9.234,18.811 C8.947,18.290 9.141,17.638 9.667,17.354 C10.193,17.070 10.853,17.262 11.139,17.783 L16.221,27.002 L18.157,25.085 C18.911,24.339 19.072,23.176 18.550,22.257 Z" class="cls-2"/>
  </g>
</svg>
